X: 1
T: Bruno
M: 4/4
L: 1/8
R: reel
K: Gmaj
z4 z D GA |:BA GA GF GF |EF D4 GA |
BA Gc BA de | B4-B D GA |BA GA GF G|
EF D4 DD |Ec AG FD BA |1G4 G D GA :|2G7 d ||
e2 gf e4 | d2 ed BD GB| cA dc AD GA |
B6 d2 | eG gf eG ce |dG ed BD GB |
cA dc AD BA |1 G7 D:|2 G4 z D GA ||
